X: 1
T:Barry Ewen
M:C|
L:1/8
Q:80
C:Michael Grey
S:Hornpipe
K:HP
|: {g}f3/4e/4|
{Gdc}d{g}fd/2{gdedc}d/2A|
{g}B3/4e/4g3/4f/4{g}e3/4d/4{g}c3/4B/4|  !
{g}A3/4e/4{gcecG}cg3/4f/4{g}e3/4g/4|
{g}((3f3/4d/4{g}d/2e/2f/2){gAGAG}A{g}f3/4e/4{Gdc}d{g}fd/2{gdedc}d/2A|
{g}B3/4e/4g3/4f/4{g}e3/4d/4{g}c3/4B/4|  !
{g}A3/4e/4{g}c3/4e/4{A}e3/4a/4g3/4e/4|
{g}f3/4d/4{gdedc}d{g}d:| |:
{g}f3/4g/4|  !
a3/4g/4{a}f3/4a/4f3/4d/4a3/4f/4|
{a}g3/4f/4{g}e3/4f/4{gBeBG}B{g}e3/4d/4|
{g}c3/4a/4{g}a/2e/2{g}c3/4e/4{g}A3/4a/4|  !
((3f3/4d/4{g}d/2e/2f/2){gAGAG}A{g}f3/4g/4a3/4g/4{a}f3/4a/4f3/4d/4a3/4f/4
|
{a}g3/4f/4{g}e3/4f/4{gBeBG}B{g}e3/4d/4|
{g}A3/4e/4{g}c3/4e/4{A}e3/4a/4g3/4e/4|  !
{g}f3/4d/4{gdedc}d{g}d:| |:
f|
{g}A3/4f/4{e}f3/4A/4{gAGAG}A{g}f3/4A/4|
{g}B3/4g/4{f}g3/4B/4{gBeBG}Bg3/4e/4|  !
{g}c3/4a/4{g}a3/4g/4{a}e3/4a/4c3/4a/4|
((3f3/4d/4{g}d/2e/2f/2){gAGAG}A{g}f{g}A3/4f/4{e}f3/4A/4{gAGAG}A{g}f3/4A/
4|
{g}B3/4g/4{f}g3/4B/4{gBeBG}Bg3/4e/4|  !
{g}A3/4e/4{g}c3/4e/4{A}e3/4a/4g3/4e/4|
{g}f3/4d/4{gdedc}d{g}d:| |:
{g}f3/4g/4|  !
a3/4{g}a/4{g}a/2g/2{a}f3/4d/4{gdedc}d|
g3/4f/4{g}e3/4f/4{gBeBG}B{g}e3/4d/4|
{g}c3/4a/4A3/4a/4g3/4f/4{g}e3/4a/4|  !
((3f3/4d/4{g}d/2e/2f/2){gAGAG}A|1 {g}f3/4g/4a3/4{g}a/4{g}a/2g/2{a}f3/4d/
4{gdedc}d|
g3/4f/4{g}e3/4f/4{gBeBG}B{g}e3/4d/4|
{g}A3/4e/4{g}c3/4e/4{A}e3/4a/4g3/4e/4|  !
{g}f3/4d/4{gdedc}d{g}d:|2
f|
{g}A3/4d/4{c}d/2A/2{gdedc}d{g}f3/4A/4|
{g}B3/4e/4{d}e/2A/2{gBeBG}Bg3/4e/4|  !
{g}c3/4a/4{g}a/2g/2{a}e3/4a/4c3/4a/4|
f3/4d/4{gdedc}d{g}d|]
